_site/images/features/storage-locations.svg

<svg height="40" viewBox="0 0 40 40" width="40" xmlns="http://www.w3.org/2000/svg"><g fill="none" fill-rule="evenodd"><rect fill="#ff647c" height="40" rx="7" width="40"/><path d="m23.4545455 14.7272727c0-1.2049849-.9768333-2.1818182-2.1818182-2.1818182h-6.5454546c-1.2049849 0-2.1818182.9768333-2.1818182 2.1818182h-3.27272723v-3.2727272h2.54181823c1.9580959.0032631 3.6296119-1.4139244 3.9466862-3.34618068.3170744-1.93225631-.8138711-3.80931475-2.6703226-4.43200118-1.023453-2.13419797-3.30651806-3.36478902-5.65191896-3.04643131-2.3454009.3183577-4.21782942 2.11300301-4.63535378 4.44279494-1.52602624.50156696-2.46245542 2.03650883-2.2102557 3.62292643s1.61846603 2.7552899 3.22480116 2.7588918h3.27272727v8.7272727c0 .6024924.48841664 1.0909091 1.09090909 1.0909091h4.36363632c0 1.2049849.9768333 2.1818182 2.1818182 2.1818182h6.5454546c1.2049849 0 2.1818182-.9768333 2.1818182-2.1818182v-2.1818182c-.00399-.3841881-.1093602-.7605102-.3054546-1.0909091.1960944-.3303989.3014646-.706721.3054546-1.0909091zm-19.63636368-5.45454543c-.60249246 0-1.09090909-.48841663-1.09090909-1.09090909 0-.60249245.48841663-1.09090909 1.09090909-1.09090909.60249245 0 1.09090909-.48841664 1.09090909-1.09090909-.01818493-1.6082385 1.13489022-2.99133134 2.72015884-3.26278145 1.58526862-.2714501 3.13282145.64920645 3.65075025 2.17187236.130365.37772769.4568138.65395356.8509091.72.8860395.14666816 1.5283977.92401468 1.5054545 1.82181818 0 1.0061624-.8156557 1.82181818-1.8218181 1.82181818zm8.72727268 9.81818183h-3.27272723v-2.1818182h3.27272723c.00399.3841881.1093602.7605102.3054546 1.0909091-.1960944.3303989-.3014646.706721-.3054546 1.0909091zm2.1818182 2.1818182v-2.1818182h6.5454546v2.1818182zm0-4.3636364v-2.1818182h6.5454546v2.1818182z" fill="#fff" fill-rule="nonzero" transform="translate(8 8)"/></g></svg>

<?xml version="1.0" encoding="UTF-8"?>
<svg width="40px" height="40px" viewBox="0 0 40 40" version="1.1" xmlns="http://www.w3.org/2000/svg" xmlns:xlink="http://www.w3.org/1999/xlink">
    <!-- Generator: Sketch 52.6 (67491) - http://www.bohemiancoding.com/sketch -->
    <title>Group 5</title>
    <desc>Created with Sketch.</desc>
    <g id="Website" stroke="none" stroke-width="1" fill="none" fill-rule="evenodd">
        <g id="6--Pricing" transform="translate(-140.000000, -1726.000000)">
            <g id="Group-5" transform="translate(140.000000, 1726.000000)">
                <rect id="Rectangle" fill="#FF647C" x="0" y="0" width="40" height="40" rx="7"></rect>
                <g id="cloud-database-tree" transform="translate(8.000000, 8.000000)" fill="#FFFFFF" fill-rule="nonzero">
                    <path d="M23.4545455,14.7272727 C23.4545455,13.5222878 22.4777122,12.5454545 21.2727273,12.5454545 L14.7272727,12.5454545 C13.5222878,12.5454545 12.5454545,13.5222878 12.5454545,14.7272727 L9.27272727,14.7272727 L9.27272727,11.4545455 L11.8145455,11.4545455 C13.7726414,11.4578086 15.4441574,10.0406211 15.7612317,8.10836482 C16.0783061,6.17610851 14.9473606,4.29905007 13.0909091,3.67636364 C12.0674561,1.54216567 9.78439104,0.311574621 7.43899014,0.629932326 C5.09358924,0.94829003 3.22116072,2.74293534 2.80363636,5.07272727 C1.27761012,5.57429423 0.341180942,7.1092361 0.593380663,8.6956537 C0.845580384,10.2820713 2.21184669,11.4509436 3.81818182,11.4545455 L7.09090909,11.4545455 L7.09090909,20.1818182 C7.09090909,20.7843106 7.57932573,21.2727273 8.18181818,21.2727273 L12.5454545,21.2727273 C12.5454545,22.4777122 13.5222878,23.4545455 14.7272727,23.4545455 L21.2727273,23.4545455 C22.4777122,23.4545455 23.4545455,22.4777122 23.4545455,21.2727273 L23.4545455,19.0909091 C23.4505555,18.706721 23.3451853,18.3303989 23.1490909,18 C23.3451853,17.6696011 23.4505555,17.293279 23.4545455,16.9090909 L23.4545455,14.7272727 Z M3.81818182,9.27272727 C3.21568936,9.27272727 2.72727273,8.78431064 2.72727273,8.18181818 C2.72727273,7.57932573 3.21568936,7.09090909 3.81818182,7.09090909 C4.42067427,7.09090909 4.90909091,6.60249245 4.90909091,6 C4.89090598,4.3917615 6.04398113,3.00866866 7.62924975,2.73721855 C9.21451837,2.46576845 10.7620712,3.386425 11.28,4.90909091 C11.410365,5.2868186 11.7368138,5.56304447 12.1309091,5.62909091 C13.0169486,5.77575907 13.6593068,6.55310559 13.6363636,7.45090909 C13.6363636,8.45707149 12.8207079,9.27272727 11.8145455,9.27272727 L3.81818182,9.27272727 Z M12.5454545,19.0909091 L9.27272727,19.0909091 L9.27272727,16.9090909 L12.5454545,16.9090909 C12.5494445,17.293279 12.6548147,17.6696011 12.8509091,18 C12.6548147,18.3303989 12.5494445,18.706721 12.5454545,19.0909091 Z M14.7272727,21.2727273 L14.7272727,19.0909091 L21.2727273,19.0909091 L21.2727273,21.2727273 L14.7272727,21.2727273 Z M14.7272727,16.9090909 L14.7272727,14.7272727 L21.2727273,14.7272727 L21.2727273,16.9090909 L14.7272727,16.9090909 Z" id="Shape"></path>
                </g>
            </g>
        </g>
    </g>
</svg>
